; generated by Slic3r 0.7.2b on 2012-09-22 at 20:13:52

; layer_height = 0.4
; perimeters = 3
; solid_layers = 3
; fill_density = 0.4
; nozzle_diameter = 0.5
; filament_diameter = 3
; extrusion_multiplier = 1
; perimeter_speed = 30
; infill_speed = 60
; travel_speed = 130
; extrusion_width_ratio = 0
; scale = 1
; single wall width = 0.53mm

M104 S200 ; set temperature
G28 ; home all axes
M109 S200 ; wait for temperature to be reached
G90 ; use absolute coordinates
G21 ; set units to millimeters
G92 E0 ; reset extrusion distance
M82 ; use absolute distances for extrusion
G1 Z0.400 F7800.000
G1 X85.930 Y86.110
G1 F1800.000 E1.00000
G1 X86.110 Y85.930 F540.000 E1.00749
G1 X86.490 Y85.590 E1.02248
G1 X87.110 Y85.150 E1.04483
G1 X87.330 Y85.020 E1.05235
G1 X87.790 Y84.790 E1.06747
G1 X88.260 Y84.600 E1.08238
G1 X88.750 Y84.450 E1.09745
G1 X89.000 Y84.390 E1.10501
G1 X89.750 Y84.280 E1.12730
G1 X90.260 Y84.260 E1.14231
G1 X110.240 Y84.280 E1.72982
G1 X110.990 Y84.390 E1.75211
G1 X111.490 Y84.520 E1.76731
G1 X111.970 Y84.690 E1.78228
G1 X112.430 Y84.900 E1.79715
G1 X112.660 Y85.020 E1.80478
G1 X112.880 Y85.150 E1.81229
G1 X113.500 Y85.590 E1.83465
G1 X113.880 Y85.930 E1.84964
G1 X114.060 Y86.110 E1.85713
G1 X114.400 Y86.490 E1.87212
G1 X114.840 Y87.110 E1.89448
G1 X114.970 Y87.330 E1.90199
G1 X115.200 Y87.790 E1.91711
G1 X115.390 Y88.260 E1.93202
G1 X115.540 Y88.750 E1.94709
G1 X115.600 Y89.000 E1.95465
G1 X115.710 Y89.750 E1.97694
G1 X115.710 Y110.240 E2.57945
G1 X115.600 Y110.990 E2.60174
G1 X115.470 Y111.490 E2.61694
G1 X115.300 Y111.970 E2.63191
G1 X115.090 Y112.430 E2.64678
G1 X114.970 Y112.660 E2.65441
G1 X114.840 Y112.880 E2.66192
G1 X114.400 Y113.500 E2.68428
G1 X114.060 Y113.880 E2.69927
G1 X113.880 Y114.060 E2.70676
G1 X113.500 Y114.400 E2.72175
G1 X112.880 Y114.840 E2.74411
G1 X112.660 Y114.970 E2.75162
G1 X112.200 Y115.200 E2.76674
G1 X111.730 Y115.390 E2.78165
G1 X111.240 Y115.540 E2.79672
G1 X110.990 Y115.600 E2.80428
G1 X110.240 Y115.710 E2.82657
G1 X109.730 Y115.730 E2.84158
G1 X89.750 Y115.710 E3.42910
G1 X89.000 Y115.600 E3.45139
G1 X88.500 Y115.470 E3.46658
G1 X88.020 Y115.300 E3.48155
G1 X87.560 Y115.090 E3.49642
G1 X87.330 Y114.970 E3.50405
G1 X87.110 Y114.840 E3.51156
G1 X86.490 Y114.400 E3.53392
G1 X86.110 Y114.060 E3.54891
G1 X85.930 Y113.880 E3.55640
G1 X85.590 Y113.500 E3.57139
G1 X85.150 Y112.880 E3.59375
G1 X85.020 Y112.660 E3.60126
G1 X84.790 Y112.200 E3.61638
G1 X84.600 Y111.730 E3.63129
G1 X84.450 Y111.240 E3.64636
G1 X84.390 Y110.990 E3.65392
G1 X84.280 Y110.240 E3.67621
G1 X84.280 Y89.750 E4.27873
G1 X84.390 Y89.000 E4.30102
G1 X84.520 Y88.500 E4.31621
G1 X84.690 Y88.020 E4.33118
G1 X84.900 Y87.560 E4.34605
G1 X85.020 Y87.330 E4.35368
G1 X85.150 Y87.110 E4.36119
G1 X85.590 Y86.490 E4.38355
G1 X85.877 Y86.169 E4.39623
G1 F1800.000 E3.39623
G92 E0
G1 X91.293 Y91.293 F7800.000
G1 F1800.000 E1.00000
G1 X108.707 Y91.293 F540.000 E1.51207
G1 X108.707 Y108.707 E2.02414
G1 X91.293 Y108.707 E2.53622
G1 X91.293 Y91.372 E3.04597
G1 X90.778 Y90.778 F7800.000
G1 X109.222 Y90.778 F540.000 E3.58834
G1 X109.222 Y109.222 E4.13071
G1 X90.778 Y109.222 E4.67308
G1 X90.778 Y90.856 E5.21314
G1 X90.263 Y90.263 F7800.000
G1 X109.737 Y90.263 F540.000 E5.78581
G1 X109.737 Y109.737 E6.35847
G1 X90.263 Y109.737 E6.93114
G1 X90.263 Y90.341 E7.50149
G1 X91.660 Y91.660 F7800.000
G1 X108.340 Y108.340 F1080.000 E8.19690
G1 X107.611 Y108.340 F7800.000
G1 X91.660 Y92.389 F1080.000 E8.86187
G1 X91.660 Y93.119 F7800.000
G1 X106.881 Y108.340 F1080.000 E9.49643
G1 X106.151 Y108.340 F7800.000
G1 X91.660 Y93.849 F1080.000 E10.10057
G1 X91.660 Y94.578 F7800.000
G1 X105.421 Y108.340 F1080.000 E10.67428
G1 X104.692 Y108.340 F7800.000
G1 X91.660 Y95.308 F1080.000 E11.21757
G1 X91.660 Y96.038 F7800.000
G1 X103.962 Y108.340 F1080.000 E11.73044
G1 X103.232 Y108.340 F7800.000
G1 X91.660 Y96.768 F1080.000 E12.21288
G1 X91.660 Y97.497 F7800.000
G1 X102.503 Y108.340 F1080.000 E12.66491
G1 X101.773 Y108.340 F7800.000
G1 X91.660 Y98.227 F1080.000 E13.08652
G1 X91.660 Y98.957 F7800.000
G1 X101.043 Y108.340 F1080.000 E13.47770
G1 X100.313 Y108.340 F7800.000
G1 X91.660 Y99.687 F1080.000 E13.83846
G1 X91.660 Y100.416 F7800.000
G1 X99.584 Y108.340 F1080.000 E14.16880
G1 X98.854 Y108.340 F7800.000
G1 X91.660 Y101.146 F1080.000 E14.46872
G1 X91.660 Y101.876 F7800.000
G1 X98.124 Y108.340 F1080.000 E14.73822
G1 X97.394 Y108.340 F7800.000
G1 X91.660 Y102.606 F1080.000 E14.97729
G1 X91.660 Y103.335 F7800.000
G1 X96.665 Y108.340 F1080.000 E15.18595
G1 X95.935 Y108.340 F7800.000
G1 X91.660 Y104.065 F1080.000 E15.36418
G1 X91.660 Y104.795 F7800.000
G1 X95.205 Y108.340 F1080.000 E15.51200
G1 X94.475 Y108.340 F7800.000
G1 X91.660 Y105.525 F1080.000 E15.62939
G1 X91.660 Y106.254 F7800.000
G1 X93.746 Y108.340 F1080.000 E15.71636
G1 X93.016 Y108.340 F7800.000
G1 X91.660 Y106.984 F1080.000 E15.77290
G1 X91.660 Y107.714 F7800.000
G1 X92.286 Y108.340 F1080.000 E15.79903
G1 F1800.000 E14.79903
G92 E0
G1 X108.340 Y107.611 F7800.000
G1 F1800.000 E1.00000
G1 X92.389 Y91.660 F1080.000 E1.66498
G1 X93.119 Y91.660 F7800.000
G1 X108.340 Y106.881 F1080.000 E2.29954
G1 X108.340 Y106.151 F7800.000
G1 X93.849 Y91.660 F1080.000 E2.90367
G1 X94.578 Y91.660 F7800.000
G1 X108.340 Y105.421 F1080.000 E3.47738
G1 X108.340 Y104.692 F7800.000
G1 X95.308 Y91.660 F1080.000 E4.02067
G1 X96.038 Y91.660 F7800.000
G1 X108.340 Y103.962 F1080.000 E4.53354
G1 X108.340 Y103.232 F7800.000
G1 X96.768 Y91.660 F1080.000 E5.01599
G1 X97.497 Y91.660 F7800.000
G1 X108.340 Y102.503 F1080.000 E5.46802
G1 X108.340 Y101.773 F7800.000
G1 X98.227 Y91.660 F1080.000 E5.88962
G1 X98.957 Y91.660 F7800.000
G1 X108.340 Y101.043 F1080.000 E6.28080
G1 X108.340 Y100.313 F7800.000
G1 X99.687 Y91.660 F1080.000 E6.64157
G1 X100.416 Y91.660 F7800.000
G1 X108.340 Y99.584 F1080.000 E6.97191
G1 X108.340 Y98.854 F7800.000
G1 X101.146 Y91.660 F1080.000 E7.27183
G1 X101.876 Y91.660 F7800.000
G1 X108.340 Y98.124 F1080.000 E7.54132
G1 X108.340 Y97.394 F7800.000
G1 X102.606 Y91.660 F1080.000 E7.78040
G1 X103.335 Y91.660 F7800.000
G1 X108.340 Y96.665 F1080.000 E7.98905
G1 X108.340 Y95.935 F7800.000
G1 X104.065 Y91.660 F1080.000 E8.16729
G1 X104.795 Y91.660 F7800.000
G1 X108.340 Y95.205 F1080.000 E8.31510
G1 X108.340 Y94.475 F7800.000
G1 X105.525 Y91.660 F1080.000 E8.43249
G1 X106.254 Y91.660 F7800.000
G1 X108.340 Y93.746 F1080.000 E8.51946
G1 X108.340 Y93.016 F7800.000
G1 X106.984 Y91.660 F1080.000 E8.57601
G1 X107.714 Y91.660 F7800.000
G1 X108.340 Y92.286 F1080.000 E8.60213
G1 F1800.000 E7.60213
G92 E0
G1 Z0.800 F7800.000
G1 X108.707 Y91.293
G1 F1800.000 E1.00000
G1 X108.707 Y108.707 F1800.000 E1.51207
G1 X91.293 Y108.707 E2.02414
G1 X91.293 Y91.293 E2.53622
G1 X108.628 Y91.293 E3.04597
G1 X109.222 Y90.778 F7800.000
G1 X109.222 Y109.222 F1800.000 E3.58834
G1 X90.778 Y109.222 E4.13071
G1 X90.778 Y90.778 E4.67308
G1 X109.144 Y90.778 E5.21314
G1 X109.737 Y90.263 F7800.000
G1 X109.737 Y109.737 F1800.000 E5.78581
G1 X90.263 Y109.737 E6.35847
G1 X90.263 Y90.263 E6.93114
G1 X109.659 Y90.263 E7.50149
G1 X108.340 Y91.660 F7800.000
G1 X91.660 Y108.340 F3600.000 E8.19689
G1 X91.660 Y107.611 F7800.000
G1 X107.611 Y91.660 F3600.000 E8.86187
G1 X106.881 Y91.660 F7800.000
G1 X91.660 Y106.881 F3600.000 E9.49643
G1 X91.660 Y106.151 F7800.000
G1 X106.151 Y91.660 F3600.000 E10.10057
G1 X105.422 Y91.660 F7800.000
G1 X91.660 Y105.422 F3600.000 E10.67428
G1 X91.660 Y104.692 F7800.000
G1 X104.692 Y91.660 F3600.000 E11.21758
G1 X103.962 Y91.660 F7800.000
G1 X91.660 Y103.962 F3600.000 E11.73045
G1 X91.660 Y103.232 F7800.000
G1 X103.232 Y91.660 F3600.000 E12.21290
G1 X102.503 Y91.660 F7800.000
G1 X91.660 Y102.503 F3600.000 E12.66493
G1 X91.660 Y101.773 F7800.000
G1 X101.773 Y91.660 F3600.000 E13.08654
G1 X101.043 Y91.659 F7800.000
G1 X91.659 Y101.043 F3600.000 E13.47772
G1 X91.659 Y100.313 F7800.000
G1 X100.313 Y91.659 F3600.000 E13.83849
G1 X99.584 Y91.659 F7800.000
G1 X91.659 Y99.584 F3600.000 E14.16883
G1 X91.659 Y98.854 F7800.000
G1 X98.854 Y91.659 F3600.000 E14.46875
G1 X98.124 Y91.659 F7800.000
G1 X91.659 Y98.124 F3600.000 E14.73825
G1 X91.659 Y97.394 F7800.000
G1 X97.394 Y91.659 F3600.000 E14.97733
G1 X96.665 Y91.659 F7800.000
G1 X91.659 Y96.665 F3600.000 E15.18599
G1 X91.659 Y95.935 F7800.000
G1 X95.935 Y91.659 F3600.000 E15.36423
G1 X95.205 Y91.659 F7800.000
G1 X91.659 Y95.205 F3600.000 E15.51204
G1 X91.659 Y94.475 F7800.000
G1 X94.475 Y91.659 F3600.000 E15.62944
G1 X93.746 Y91.659 F7800.000
G1 X91.659 Y93.746 F3600.000 E15.71641
G1 X91.659 Y93.016 F7800.000
G1 X93.016 Y91.659 F3600.000 E15.77296
G1 X92.286 Y91.659 F7800.000
G1 X91.659 Y92.286 F3600.000 E15.79909
G1 F1800.000 E14.79909
G92 E0
G1 X92.389 Y108.340 F7800.000
G1 F1800.000 E1.00000
G1 X108.340 Y92.389 F3600.000 E1.66498
G1 X108.340 Y93.119 F7800.000
G1 X93.119 Y108.340 F3600.000 E2.29954
G1 X93.849 Y108.340 F7800.000
G1 X108.340 Y93.849 F3600.000 E2.90367
G1 X108.340 Y94.578 F7800.000
G1 X94.578 Y108.340 F3600.000 E3.47739
G1 X95.308 Y108.340 F7800.000
G1 X108.340 Y95.308 F3600.000 E4.02068
G1 X108.340 Y96.038 F7800.000
G1 X96.038 Y108.340 F3600.000 E4.53355
G1 X96.768 Y108.340 F7800.000
G1 X108.340 Y96.768 F3600.000 E5.01600
G1 X108.340 Y97.497 F7800.000
G1 X97.497 Y108.340 F3600.000 E5.46803
G1 X98.227 Y108.340 F7800.000
G1 X108.340 Y98.227 F3600.000 E5.88964
G1 X108.340 Y98.957 F7800.000
G1 X98.957 Y108.340 F3600.000 E6.28083
G1 X99.687 Y108.340 F7800.000
G1 X108.340 Y99.687 F3600.000 E6.64159
G1 X108.340 Y100.416 F7800.000
G1 X100.416 Y108.340 F3600.000 E6.97194
G1 X101.146 Y108.340 F7800.000
G1 X108.340 Y101.146 F3600.000 E7.27186
G1 X108.340 Y101.876 F7800.000
G1 X101.876 Y108.340 F3600.000 E7.54136
G1 X102.606 Y108.340 F7800.000
G1 X108.340 Y102.606 F3600.000 E7.78044
G1 X108.340 Y103.335 F7800.000
G1 X103.335 Y108.340 F3600.000 E7.98910
G1 X104.065 Y108.340 F7800.000
G1 X108.340 Y104.065 F3600.000 E8.16733
G1 X108.340 Y104.795 F7800.000
G1 X104.795 Y108.340 F3600.000 E8.31515
G1 X105.525 Y108.340 F7800.000
G1 X108.340 Y105.525 F3600.000 E8.43254
G1 X108.340 Y106.254 F7800.000
G1 X106.254 Y108.340 F3600.000 E8.51951
G1 X106.984 Y108.340 F7800.000
G1 X108.340 Y106.984 F3600.000 E8.57606
G1 X108.340 Y107.714 F7800.000
G1 X107.714 Y108.340 F3600.000 E8.60219
G1 F1800.000 E7.60219
G92 E0
G1 Z1.200 F7800.000
G1 X108.707 Y108.707
G1 F1800.000 E1.00000
G1 X91.293 Y108.707 F1800.000 E1.51207
G1 X91.293 Y91.293 E2.02414
G1 X108.707 Y91.293 E2.53622
G1 X108.707 Y108.628 E3.04597
G1 X109.222 Y109.222 F7800.000
G1 X90.778 Y109.222 F1800.000 E3.58834
G1 X90.778 Y90.778 E4.13071
G1 X109.222 Y90.778 E4.67308
G1 X109.222 Y109.144 E5.21314
G1 X109.737 Y109.737 F7800.000
G1 X90.263 Y109.737 F1800.000 E5.78580
G1 X90.263 Y90.263 E6.35847
G1 X109.737 Y90.263 E6.93114
G1 X109.737 Y109.659 E7.50149
G1 X108.340 Y108.340 F7800.000
G1 X91.660 Y91.660 F3600.000 E8.19689
G1 X91.660 Y92.389 F7800.000
G1 X107.611 Y108.340 F3600.000 E8.86187
G1 X106.881 Y108.340 F7800.000
G1 X91.660 Y93.119 F3600.000 E9.49643
G1 X91.660 Y93.849 F7800.000
G1 X106.151 Y108.340 F3600.000 E10.10056
G1 X105.421 Y108.340 F7800.000
G1 X91.660 Y94.578 F3600.000 E10.67427
G1 X91.660 Y95.308 F7800.000
G1 X104.692 Y108.340 F3600.000 E11.21756
G1 X103.962 Y108.340 F7800.000
G1 X91.660 Y96.038 F3600.000 E11.73043
G1 X91.660 Y96.768 F7800.000
G1 X103.232 Y108.340 F3600.000 E12.21288
G1 X102.503 Y108.340 F7800.000
G1 X91.660 Y97.497 F3600.000 E12.66490
G1 X91.660 Y98.227 F7800.000
G1 X101.773 Y108.340 F3600.000 E13.08651
G1 X101.043 Y108.340 F7800.000
G1 X91.660 Y98.957 F3600.000 E13.47769
G1 X91.660 Y99.687 F7800.000
G1 X100.313 Y108.340 F3600.000 E13.83845
G1 X99.584 Y108.340 F7800.000
G1 X91.660 Y100.416 F3600.000 E14.16880
G1 X91.660 Y101.146 F7800.000
G1 X98.854 Y108.340 F3600.000 E14.46871
G1 X98.124 Y108.340 F7800.000
G1 X91.660 Y101.876 F3600.000 E14.73821
G1 X91.660 Y102.606 F7800.000
G1 X97.394 Y108.340 F3600.000 E14.97729
G1 X96.665 Y108.340 F7800.000
G1 X91.660 Y103.335 F3600.000 E15.18594
G1 X91.660 Y104.065 F7800.000
G1 X95.935 Y108.340 F3600.000 E15.36418
G1 X95.205 Y108.340 F7800.000
G1 X91.660 Y104.795 F3600.000 E15.51199
G1 X91.660 Y105.525 F7800.000
G1 X94.475 Y108.340 F3600.000 E15.62938
G1 X93.746 Y108.340 F7800.000
G1 X91.660 Y106.254 F3600.000 E15.71635
G1 X91.660 Y106.984 F7800.000
G1 X93.016 Y108.340 F3600.000 E15.77290
G1 X92.286 Y108.340 F7800.000
G1 X91.660 Y107.714 F3600.000 E15.79902
G1 F1800.000 E14.79902
G92 E0
G1 X92.389 Y91.660 F7800.000
G1 F1800.000 E1.00000
G1 X108.340 Y107.611 F3600.000 E1.66498
G1 X108.340 Y106.881 F7800.000
G1 X93.119 Y91.660 F3600.000 E2.29954
G1 X93.849 Y91.660 F7800.000
G1 X108.340 Y106.151 F3600.000 E2.90367
G1 X108.340 Y105.421 F7800.000
G1 X94.578 Y91.660 F3600.000 E3.47738
G1 X95.308 Y91.660 F7800.000
G1 X108.340 Y104.692 F3600.000 E4.02067
G1 X108.340 Y103.962 F7800.000
G1 X96.038 Y91.660 F3600.000 E4.53354
G1 X96.768 Y91.660 F7800.000
G1 X108.340 Y103.232 F3600.000 E5.01599
G1 X108.340 Y102.503 F7800.000
G1 X97.497 Y91.660 F3600.000 E5.46802
G1 X98.227 Y91.660 F7800.000
G1 X108.340 Y101.773 F3600.000 E5.88962
G1 X108.340 Y101.043 F7800.000
G1 X98.957 Y91.660 F3600.000 E6.28080
G1 X99.687 Y91.660 F7800.000
G1 X108.340 Y100.313 F3600.000 E6.64157
G1 X108.340 Y99.584 F7800.000
G1 X100.416 Y91.660 F3600.000 E6.97191
G1 X101.146 Y91.660 F7800.000
G1 X108.340 Y98.854 F3600.000 E7.27183
G1 X108.340 Y98.124 F7800.000
G1 X101.876 Y91.660 F3600.000 E7.54132
G1 X102.606 Y91.660 F7800.000
G1 X108.340 Y97.394 F3600.000 E7.78040
G1 X108.340 Y96.665 F7800.000
G1 X103.335 Y91.660 F3600.000 E7.98905
G1 X104.065 Y91.660 F7800.000
G1 X108.340 Y95.935 F3600.000 E8.16729
G1 X108.340 Y95.205 F7800.000
G1 X104.795 Y91.660 F3600.000 E8.31510
G1 X105.525 Y91.660 F7800.000
G1 X108.340 Y94.475 F3600.000 E8.43249
G1 X108.340 Y93.746 F7800.000
G1 X106.254 Y91.660 F3600.000 E8.51946
G1 X106.984 Y91.660 F7800.000
G1 X108.340 Y93.016 F3600.000 E8.57601
G1 X108.340 Y92.286 F7800.000
G1 X107.714 Y91.660 F3600.000 E8.60213
G1 F1800.000 E7.60213
G92 E0
G1 Z1.600 F7800.000
G1 X108.707 Y91.293
G1 F1800.000 E1.00000
G1 X108.707 Y108.707 F1800.000 E1.51207
G1 X91.293 Y108.707 E2.02414
G1 X91.293 Y91.293 E2.53622
G1 X108.628 Y91.293 E3.04597
G1 X109.222 Y90.778 F7800.000
G1 X109.222 Y109.222 F1800.000 E3.58834
G1 X90.778 Y109.222 E4.13071
G1 X90.778 Y90.778 E4.67308
G1 X109.144 Y90.778 E5.21314
G1 X109.737 Y90.263 F7800.000
G1 X109.737 Y109.737 F1800.000 E5.78581
G1 X90.263 Y109.737 E6.35847
G1 X90.263 Y90.263 E6.93114
G1 X109.659 Y90.263 E7.50149
G1 X108.340 Y92.050 F7800.000
G1 X92.050 Y108.340 F3600.000 E8.17892
G1 X91.659 Y106.910 F7800.000
G1 X106.910 Y91.659 F3600.000 E8.81312
G1 X105.089 Y91.660 F7800.000
G1 X91.660 Y105.089 F3600.000 E9.37157
G1 X91.660 Y103.267 F7800.000
G1 X103.267 Y91.660 F3600.000 E9.85427
G1 X101.446 Y91.660 F7800.000
G1 X91.660 Y101.446 F3600.000 E10.26123
G1 X91.660 Y99.624 F7800.000
G1 X99.624 Y91.660 F3600.000 E10.59244
G1 X97.803 Y91.660 F7800.000
G1 X91.660 Y97.803 F3600.000 E10.84790
G1 X91.660 Y95.981 F7800.000
G1 X95.981 Y91.660 F3600.000 E11.02762
G1 X94.160 Y91.659 F7800.000
G1 X91.659 Y94.160 F3600.000 E11.13160
G1 X91.660 Y92.338 F7800.000
G1 X92.338 Y91.660 F3600.000 E11.15983
G1 F1800.000 E10.15983
G92 E0
G1 X108.340 Y93.872 F7800.000
G1 F1800.000 E1.00000
G1 X93.872 Y108.340 F3600.000 E1.60168
G1 X95.693 Y108.340 F7800.000
G1 X108.340 Y95.693 F3600.000 E2.12761
G1 X108.340 Y97.515 F7800.000
G1 X97.515 Y108.340 F3600.000 E2.57780
G1 X99.336 Y108.340 F7800.000
G1 X108.340 Y99.336 F3600.000 E2.95225
G1 X108.340 Y101.158 F7800.000
G1 X101.158 Y108.340 F3600.000 E3.25095
G1 X102.979 Y108.340 F7800.000
G1 X108.340 Y102.979 F3600.000 E3.47390
G1 X108.340 Y104.801 F7800.000
G1 X104.801 Y108.340 F3600.000 E3.62111
G1 X106.622 Y108.340 F7800.000
G1 X108.340 Y106.622 F3600.000 E3.69257
G1 F1800.000 E2.69257
G92 E0
G1 Z2.000 F7800.000
G1 X108.707 Y108.707
G1 F1800.000 E1.00000
G1 X91.293 Y108.707 F1800.000 E1.51207
G1 X91.293 Y91.293 E2.02414
G1 X108.707 Y91.293 E2.53622
G1 X108.707 Y108.628 E3.04597
G1 X109.222 Y109.222 F7800.000
