; generated by Slic3r 0.7.2b on 2012-09-24 at 22:21:43

; layer_height = .1
; perimeters = 1
; solid_layers = 1
; fill_density = 0.0
; nozzle_diameter = 0.5
; filament_diameter = 3
; extrusion_multiplier = 1
; perimeter_speed = 30
; infill_speed = 60
; travel_speed = 130
; extrusion_width_ratio = 0
; scale = 1
; single wall width = 0.70mm

M104 S200 ; set temperature
G28 ; home all axes
M109 S200 ; wait for temperature to be reached
G90 ; use absolute coordinates
G21 ; set units to millimeters
G92 E0 ; reset extrusion distance
M82 ; use absolute distances for extrusion
G1 Z0.100 F7800.000
G1 X94.233 Y92.662
G1 F1800.000 E1.00000
G1 X95.043 Y92.232 F540.000 E1.00880
G1 X95.763 Y91.932 E1.01629
G1 X97.213 Y91.442 E1.03098
G1 X97.513 Y91.362 E1.03396
G1 X98.823 Y91.132 E1.04673
G1 X99.603 Y91.062 E1.05425
G1 X100.123 Y91.052 E1.05924
G1 X100.963 Y91.082 E1.06731
G1 X101.183 Y91.102 E1.06943
G1 X101.633 Y91.172 E1.07380
G1 X102.063 Y91.272 E1.07804
G1 X102.643 Y91.442 E1.08384
G1 X102.693 Y91.452 E1.08433
G1 X103.523 Y91.722 E1.09271
G1 X103.943 Y91.902 E1.09710
G1 X104.803 Y92.362 E1.10646
G1 X105.113 Y92.552 E1.10995
G1 X105.173 Y92.602 E1.11070
G1 X105.553 Y92.842 E1.11501
G1 X106.233 Y93.332 E1.12306
G1 X107.043 Y94.002 E1.13315
G1 X107.873 Y94.832 E1.14442
G1 X108.563 Y95.652 E1.15470
G1 X109.013 Y96.302 E1.16229
G1 X109.353 Y96.942 E1.16925
G1 X109.703 Y97.822 E1.17834
G1 X109.943 Y98.692 E1.18700
G1 X110.023 Y99.122 E1.19120
G1 X110.113 Y100.152 E1.20113
G1 X110.093 Y100.872 E1.20804
G1 X110.013 Y101.592 E1.21500
G1 X109.983 Y101.762 E1.21665
G1 X109.723 Y102.742 E1.22639
G1 X109.513 Y103.292 E1.23204
G1 X109.113 Y104.072 E1.24045
G1 X109.053 Y104.172 E1.24157
G1 X108.963 Y104.342 E1.24342
G1 X107.883 Y106.002 E1.26243
G1 X107.003 Y107.072 E1.27573
G1 X106.583 Y107.512 E1.28157
G1 X105.983 Y108.042 E1.28925
G1 X105.373 Y108.502 E1.29659
G1 X105.163 Y108.642 E1.29901
G1 X104.943 Y108.772 E1.30146
G1 X104.123 Y109.172 E1.31022
G1 X103.423 Y109.442 E1.31742
G1 X101.313 Y110.022 E1.33843
G1 X101.173 Y110.052 E1.33980
G1 X100.263 Y110.172 E1.34861
G1 X100.093 Y110.182 E1.35025
G1 X100.013 Y110.182 E1.35102
G1 X99.793 Y110.192 E1.35313
G1 X98.893 Y110.172 E1.36177
G1 X98.703 Y110.152 E1.36361
G1 X97.873 Y110.002 E1.37170
G1 X97.673 Y109.952 E1.37368
G1 X96.693 Y109.612 E1.38364
G1 X96.243 Y109.402 E1.38841
G1 X95.633 Y109.052 E1.39516
G1 X95.063 Y108.672 E1.40173
G1 X93.233 Y107.232 E1.42409
G1 X93.063 Y107.082 E1.42626
G1 X92.743 Y106.762 E1.43061
G1 X92.033 Y105.912 E1.44124
G1 X92.043 Y105.912 E1.44133
G1 X91.923 Y105.762 E1.44318
G1 X91.413 Y104.962 E1.45229
G1 X91.253 Y104.672 E1.45546
G1 X90.903 Y103.932 E1.46332
G1 X90.533 Y102.962 E1.47329
G1 X90.163 Y101.202 E1.49055
G1 X90.023 Y100.052 E1.50167
G1 X90.003 Y99.402 E1.50792
G1 X90.083 Y98.452 E1.51707
G1 X90.143 Y98.072 E1.52076
G1 X90.363 Y97.172 E1.52965
G1 X90.543 Y96.632 E1.53512
G1 X90.773 Y96.102 E1.54066
G1 X91.043 Y95.602 E1.54612
G1 X91.193 Y95.362 E1.54884
G1 X91.533 Y94.912 E1.55425
G1 X91.723 Y94.692 E1.55704
G1 X92.593 Y93.852 E1.56865
G1 X93.133 Y93.402 E1.57540
G1 X93.883 Y92.872 E1.58421
G1 X94.143 Y92.716 E1.58712
G1 F1800.000 E0.58712
G92 E0
G1 X97.327 Y97.809 F7800.000
G1 F1800.000 E1.00000
G1 X97.351 Y97.800 F540.000 E1.00025
G1 X97.726 Y97.604 E1.00431
G1 X98.770 Y97.246 E1.01490
G1 X99.065 Y97.167 E1.01784
G1 X99.157 Y97.153 E1.01873
G1 X99.171 Y97.151 E1.01887
G1 X99.351 Y97.124 E1.02062
G1 X99.395 Y97.115 E1.02105
G1 X99.732 Y97.070 E1.02430
G1 X100.246 Y97.056 E1.02925
G1 X100.253 Y97.058 E1.02931
G1 X100.465 Y97.067 E1.03135
G1 X100.680 Y97.114 E1.03346
G1 X100.950 Y97.195 E1.03616
G1 X100.993 Y97.212 E1.03661
G1 X101.182 Y97.268 E1.03850
G1 X101.413 Y97.350 E1.04086
G1 X101.671 Y97.488 E1.04367
G1 X101.828 Y97.589 E1.04545
G1 X102.357 Y97.921 E1.05145
G1 X102.852 Y98.320 E1.05756
G1 X102.892 Y98.348 E1.05802
G1 X102.982 Y98.418 E1.05912
G1 X103.108 Y98.538 E1.06079
G1 X103.183 Y98.622 E1.06187
G1 X103.393 Y98.825 E1.06467
G1 X103.443 Y98.882 E1.06540
G1 X103.482 Y98.922 E1.06594
G1 X103.761 Y99.264 E1.07017
G1 X103.775 Y99.278 E1.07036
G1 X103.802 Y99.309 E1.07076
G1 X103.879 Y99.409 E1.07197
G1 X103.896 Y99.436 E1.07227
G1 X103.991 Y99.658 E1.07459
G1 X104.065 Y99.878 E1.07683
G1 X104.065 Y99.879 E1.07683
G1 X104.080 Y99.930 E1.07734
G1 X104.101 Y100.083 E1.07882
G1 X104.118 Y100.157 E1.07956
G1 X104.121 Y100.367 E1.08157
G1 X104.107 Y100.553 E1.08336
G1 X104.074 Y100.723 E1.08502
G1 X104.029 Y100.869 E1.08649
G1 X103.980 Y100.985 E1.08770
G1 X103.929 Y101.069 E1.08864
G1 X103.922 Y101.088 E1.08884
G1 X103.847 Y101.216 E1.09026
G1 X103.779 Y101.320 E1.09145
G1 X103.739 Y101.393 E1.09225
G1 X103.731 Y101.406 E1.09240
G1 X103.636 Y101.560 E1.09413
G1 X103.636 Y101.561 E1.09414
G1 X102.965 Y102.567 E1.10575
G1 X102.484 Y103.138 E1.11292
G1 X102.325 Y103.289 E1.11503
G1 X102.265 Y103.335 E1.11575
G1 X102.145 Y103.439 E1.11728
G1 X101.988 Y103.552 E1.11913
G1 X101.620 Y103.722 E1.12302
G1 X101.210 Y103.855 E1.12716
G1 X100.557 Y104.012 E1.13361
G1 X100.388 Y104.064 E1.13530
G1 X100.339 Y104.073 E1.13578
G1 X100.207 Y104.119 E1.13713
G1 X100.058 Y104.159 E1.13861
G1 X99.917 Y104.183 E1.13998
G1 X99.744 Y104.201 E1.14165
G1 X99.681 Y104.200 E1.14225
G1 X99.532 Y104.205 E1.14368
G1 X99.337 Y104.185 E1.14557
G1 X99.135 Y104.133 E1.14757
G1 X99.085 Y104.112 E1.14809
G1 X99.052 Y104.099 E1.14843
G1 X98.926 Y104.037 E1.14978
G1 X98.724 Y103.912 E1.15206
G1 X98.594 Y103.813 E1.15363
G1 X98.548 Y103.769 E1.15424
G1 X97.993 Y103.295 E1.16124
G1 X97.979 Y103.288 E1.16139
G1 X97.422 Y102.913 E1.16784
G1 X97.141 Y102.681 E1.17134
G1 X97.095 Y102.632 E1.17199
G1 X96.894 Y102.386 E1.17503
G1 X96.880 Y102.365 E1.17528
G1 X96.787 Y102.251 E1.17668
G1 X96.663 Y102.068 E1.17881
G1 X96.507 Y101.773 E1.18202
G1 X96.285 Y101.212 E1.18781
G1 X96.272 Y101.171 E1.18822
G1 X96.088 Y100.218 E1.19754
G1 X96.087 Y100.106 E1.19861
G1 X96.063 Y99.796 E1.20159
G1 X96.012 Y99.558 E1.20393
G1 X96.023 Y99.401 E1.20544
G1 X96.073 Y99.019 E1.20914
G1 X96.136 Y98.846 E1.21090
G1 X96.167 Y98.739 E1.21198
G1 X96.238 Y98.672 E1.21291
G1 X96.252 Y98.660 E1.21309
G1 X96.409 Y98.504 E1.21522
G1 X96.440 Y98.468 E1.21567
G1 X96.514 Y98.437 E1.21645
G1 X96.692 Y98.265 E1.21882
G1 X96.826 Y98.157 E1.22048
G1 X96.838 Y98.144 E1.22065
G1 X96.980 Y98.014 E1.22250
G1 X97.236 Y97.862 E1.22535
G1 X97.640 Y98.125 F7800.000
G1 X102.271 Y102.757 F1080.000 E1.30341
G1 X102.755 Y102.150 F7800.000
G1 X98.431 Y97.825 F1080.000 E1.37629
G1 X99.296 Y97.600 F7800.000
G1 X103.186 Y101.490 F1080.000 E1.44185
G1 X103.587 Y100.801 F7800.000
G1 X100.396 Y97.609 F1080.000 E1.49563
G1 F1800.000 E0.49563
G92 E0
G1 X96.983 Y98.558 F7800.000
G1 F1800.000 E1.00000
G1 X101.659 Y103.234 F1080.000 E1.07881
G1 X100.819 Y103.486 F7800.000
G1 X96.522 Y99.188 F1080.000 E1.15123
G1 X96.668 Y100.425 F7800.000
G1 X99.948 Y103.706 F1080.000 E1.20652
G1 F1800.000 E0.20652
G92 E0
G1 Z0.200 F7800.000
G1 X100.137 Y104.152
G1 F1800.000 E1.00000
G1 X99.980 Y104.193 F1800.000 E1.00156
G1 X99.825 Y104.218 E1.00307
G1 X99.558 Y104.233 E1.00563
G1 X99.364 Y104.211 E1.00751
G1 X99.161 Y104.162 E1.00952
G1 X99.034 Y104.114 E1.01082
G1 X98.945 Y104.070 E1.01177
G1 X98.726 Y103.935 E1.01425
G1 X98.590 Y103.827 E1.01591
G1 X98.472 Y103.714 E1.01748
G1 X98.374 Y103.633 E1.01870
G1 X98.360 Y103.623 E1.01886
G1 X98.015 Y103.312 E1.02332
G1 X97.446 Y102.925 E1.02993
G1 X97.164 Y102.689 E1.03345
G1 X97.112 Y102.633 E1.03419
G1 X96.801 Y102.259 E1.03886
G1 X96.747 Y102.179 E1.03979
G1 X96.585 Y101.876 E1.04309
G1 X96.340 Y101.264 E1.04941
G1 X96.205 Y100.591 E1.05600
G1 X96.173 Y100.343 E1.05840
G1 X96.169 Y100.002 E1.06167
G1 X96.164 Y99.962 E1.06206
G1 X96.163 Y99.956 E1.06212
G1 X96.123 Y99.663 E1.06496
G1 X96.118 Y99.642 E1.06516
G1 X96.118 Y99.607 E1.06551
G1 X96.153 Y99.507 E1.06652
G1 X96.166 Y99.489 E1.06673
G1 X96.170 Y99.457 E1.06704
G1 X96.171 Y99.456 E1.06706
G1 X96.171 Y99.451 E1.06710
G1 X96.187 Y99.315 E1.06842
G1 X96.187 Y99.309 E1.06848
G1 X96.212 Y99.083 E1.07066
G1 X96.230 Y99.037 E1.07113
G1 X96.269 Y98.886 E1.07263
G1 X96.302 Y98.821 E1.07333
G1 X96.422 Y98.653 E1.07531
G1 X96.522 Y98.563 E1.07660
G1 X96.535 Y98.544 E1.07682
G1 X96.691 Y98.387 E1.07895
G1 X96.698 Y98.378 E1.07906
G1 X96.820 Y98.257 E1.08071
G1 X96.866 Y98.221 E1.08127
G1 X96.889 Y98.194 E1.08161
G1 X97.023 Y98.066 E1.08338
G1 X97.139 Y97.995 E1.08469
G1 X97.211 Y97.924 E1.08566
G1 X97.760 Y97.631 E1.09163
G1 X97.906 Y97.578 E1.09312
G1 X97.959 Y97.553 E1.09369
G1 X98.793 Y97.277 E1.10212
G1 X99.011 Y97.222 E1.10428
G1 X99.204 Y97.163 E1.10622
G1 X99.665 Y97.096 E1.11068
G1 X100.274 Y97.066 E1.11654
G1 X100.450 Y97.093 E1.11825
G1 X100.488 Y97.095 E1.11861
G1 X100.705 Y97.150 E1.12076
G1 X101.289 Y97.334 E1.12664
G1 X101.437 Y97.396 E1.12819
G1 X101.724 Y97.557 E1.13134
G1 X102.333 Y97.944 E1.13827
G1 X102.466 Y98.043 E1.13986
G1 X102.873 Y98.393 E1.14501
G1 X102.904 Y98.414 E1.14537
G1 X102.938 Y98.435 E1.14576
G1 X103.289 Y98.779 E1.15048
G1 X103.469 Y98.985 E1.15309
G1 X103.658 Y99.230 E1.15607
G1 X103.712 Y99.285 E1.15681
G1 X103.750 Y99.345 E1.15749
G1 X103.806 Y99.415 E1.15835
G1 X103.897 Y99.612 E1.16044
G1 X103.995 Y99.914 E1.16348
G1 X104.023 Y100.100 E1.16529
G1 X104.038 Y100.329 E1.16749
G1 X104.021 Y100.437 E1.16854
G1 X104.014 Y100.521 E1.16935
G1 X103.989 Y100.641 E1.17053
G1 X103.978 Y100.681 E1.17093
G1 X103.976 Y100.694 E1.17105
G1 X103.935 Y100.844 E1.17254
G1 X103.861 Y101.023 E1.17440
G1 X103.683 Y101.344 E1.17792
G1 X103.682 Y101.345 E1.17794
G1 X103.281 Y102.041 E1.18565
G1 X103.274 Y102.055 E1.18580
G1 X102.946 Y102.557 E1.19155
G1 X102.852 Y102.674 E1.19300
G1 X102.840 Y102.686 E1.19316
G1 X102.656 Y102.925 E1.19605
G1 X102.494 Y103.107 E1.19840
G1 X102.330 Y103.269 E1.20061
G1 X102.162 Y103.408 E1.20270
G1 X101.994 Y103.524 E1.20466
G1 X101.817 Y103.617 E1.20657
G1 X101.629 Y103.701 E1.20855
G1 X101.441 Y103.768 E1.21047
G1 X100.237 Y104.120 E1.22251
G1 X100.415 Y103.477 F7800.000
G1 X103.483 Y100.409 F3600.000 E1.26778
G1 X103.363 Y99.513 F7800.000
G1 X99.174 Y103.702 F3600.000 E1.32958
G1 X98.585 Y103.275 F7800.000
G1 X102.897 Y98.963 F3600.000 E1.39319
G1 X102.355 Y98.488 F7800.000
G1 X98.025 Y102.818 F3600.000 E1.45707
G1 X97.441 Y102.386 F7800.000
G1 X101.756 Y98.071 F3600.000 E1.52073
G1 X101.082 Y97.729 F7800.000
G1 X97.018 Y101.793 F3600.000 E1.58068
G1 X96.757 Y101.037 F7800.000
G1 X100.224 Y97.570 F3600.000 E1.63183
G1 X98.964 Y97.814 F7800.000
G1 X96.656 Y100.122 F3600.000 E1.66587
G1 F1800.000 E0.66587
G92 E0
G1 Z0.300 F7800.000
G1 X96.237 Y100.238
G1 F1800.000 E1.00000
G1 X96.219 Y99.880 F1800.000 E1.00344
G1 X96.207 Y99.786 E1.00435
G1 X96.227 Y99.615 E1.00601
G1 X96.241 Y99.600 E1.00620
G1 X96.302 Y99.173 E1.01034
G1 X96.370 Y98.924 E1.01282
G1 X96.462 Y98.786 E1.01441
G1 X96.585 Y98.640 E1.01624
G1 X96.597 Y98.622 E1.01645
G1 X96.597 Y98.622 E1.01645
G1 X96.739 Y98.449 E1.01860
G1 X96.834 Y98.357 E1.01987
G1 X96.911 Y98.271 E1.02098
G1 X96.921 Y98.256 E1.02115
G1 X97.237 Y97.952 E1.02536
G1 X97.789 Y97.667 E1.03132
G1 X97.844 Y97.646 E1.03189
G1 X97.986 Y97.582 E1.03338
G1 X98.822 Y97.304 E1.04184
G1 X99.241 Y97.180 E1.04603
G1 X99.645 Y97.117 E1.04996
G1 X99.873 Y97.112 E1.05215
G1 X100.303 Y97.080 E1.05629
G1 X100.388 Y97.091 E1.05711
G1 X100.400 Y97.093 E1.05723
G1 X101.151 Y97.320 E1.06476
G1 X101.472 Y97.449 E1.06808
G1 X102.309 Y97.966 E1.07752
G1 X102.443 Y98.060 E1.07909
G1 X102.766 Y98.349 E1.08325
G1 X102.934 Y98.478 E1.08529
G1 X102.949 Y98.487 E1.08546
G1 X102.995 Y98.527 E1.08604
G1 X103.364 Y98.942 E1.09137
G1 X103.394 Y98.983 E1.09186
G1 X103.452 Y99.049 E1.09270
G1 X103.506 Y99.134 E1.09367
G1 X103.551 Y99.191 E1.09437
G1 X103.675 Y99.319 E1.09607
G1 X103.700 Y99.358 E1.09652
G1 X103.806 Y99.577 E1.09886
G1 X103.941 Y100.003 E1.10315
G1 X103.948 Y100.044 E1.10355
G1 X103.959 Y100.291 E1.10593
G1 X103.945 Y100.376 E1.10675
G1 X103.942 Y100.411 E1.10708
G1 X103.927 Y100.471 E1.10768
G1 X103.915 Y100.512 E1.10809
G1 X103.891 Y100.619 E1.10914
G1 X103.884 Y100.666 E1.10959
G1 X103.842 Y100.817 E1.11110
G1 X103.717 Y101.130 E1.11433
G1 X103.645 Y101.253 E1.11571
G1 X103.350 Y101.833 E1.12195
G1 X103.276 Y101.958 E1.12335
G1 X103.240 Y102.043 E1.12423
G1 X103.168 Y102.173 E1.12566
G1 X102.930 Y102.542 E1.12987
G1 X102.926 Y102.547 E1.12993
G1 X102.919 Y102.554 E1.13003
G1 X102.664 Y102.900 E1.13415
G1 X102.505 Y103.082 E1.13647
G1 X102.343 Y103.242 E1.13866
G1 X102.177 Y103.377 E1.14072
G1 X102.004 Y103.492 E1.14271
G1 X101.824 Y103.591 E1.14468
G1 X101.638 Y103.678 E1.14666
G1 X101.451 Y103.749 E1.14858
G1 X100.793 Y103.936 E1.15514
G1 X100.690 Y103.974 E1.15619
G1 X100.570 Y104.011 E1.15740
G1 X100.154 Y104.164 E1.16166
G1 X99.963 Y104.214 E1.16355
G1 X99.774 Y104.247 E1.16539
G1 X99.598 Y104.256 E1.16708
G1 X99.594 Y104.255 E1.16712
G1 X99.386 Y104.236 E1.16913
G1 X99.177 Y104.189 E1.17118
G1 X99.013 Y104.129 E1.17286
G1 X98.967 Y104.106 E1.17336
G1 X98.739 Y103.965 E1.17592
G1 X98.583 Y103.838 E1.17786
G1 X98.097 Y103.385 E1.18423
G1 X98.016 Y103.317 E1.18525
G1 X97.469 Y102.937 E1.19165
G1 X97.349 Y102.842 E1.19312
G1 X97.165 Y102.673 E1.19551
G1 X97.128 Y102.634 E1.19603
G1 X96.817 Y102.269 E1.20063
G1 X96.656 Y101.981 E1.20380
G1 X96.520 Y101.678 E1.20699
G1 X96.412 Y101.371 E1.21011
G1 X96.403 Y101.336 E1.21046
G1 X96.229 Y100.489 E1.21876
G1 X96.223 Y100.441 E1.21923
G1 X96.220 Y100.365 E1.21996
G1 X96.223 Y100.342 E1.22017
G1 X96.783 Y100.525 F7800.000
G1 X99.998 Y103.741 F3600.000 E1.27284
G1 X100.802 Y103.471 F7800.000
G1 X96.738 Y99.407 F3600.000 E1.33941
G1 X97.087 Y98.682 F7800.000
G1 X101.621 Y103.216 F3600.000 E1.41368
G1 X102.241 Y102.762 F7800.000
G1 X97.678 Y98.199 F3600.000 E1.48840
G1 X98.445 Y97.892 F7800.000
G1 X102.694 Y102.141 F3600.000 E1.55800
G1 X103.072 Y101.446 F7800.000
G1 X99.271 Y97.644 F3600.000 E1.62026
G1 X100.365 Y97.664 F7800.000
G1 X103.409 Y100.708 F3600.000 E1.67011
G1 F1800.000 E0.67011
G92 E0
G1 Z0.400 F7800.000
G1 X103.737 Y100.829
G1 F1800.000 E1.00000
G1 X103.630 Y101.110 F1800.000 E1.00289
G1 X103.555 Y101.259 E1.00450
G1 X103.544 Y101.289 E1.00480
G1 X103.399 Y101.595 E1.00805
G1 X103.393 Y101.618 E1.00828
G1 X103.262 Y101.883 E1.01111
G1 X103.204 Y102.035 E1.01267
G1 X103.059 Y102.297 E1.01555
G1 X102.847 Y102.631 E1.01935
G1 X102.629 Y102.928 E1.02289
G1 X102.518 Y103.055 E1.02450
G1 X102.356 Y103.214 E1.02668
G1 X102.189 Y103.350 E1.02875
G1 X102.015 Y103.467 E1.03076
G1 X101.836 Y103.567 E1.03273
G1 X101.649 Y103.654 E1.03471
G1 X101.459 Y103.728 E1.03667
G1 X100.809 Y103.925 E1.04319
G1 X100.099 Y104.194 E1.05048
G1 X99.944 Y104.236 E1.05202
G1 X99.794 Y104.265 E1.05348
G1 X99.615 Y104.276 E1.05521
G1 X99.400 Y104.258 E1.05728
G1 X99.346 Y104.249 E1.05781
G1 X99.204 Y104.219 E1.05920
G1 X98.993 Y104.143 E1.06135
G1 X98.751 Y103.994 E1.06408
G1 X98.579 Y103.855 E1.06620
G1 X98.104 Y103.394 E1.07256
G1 X98.025 Y103.329 E1.07354
G1 X97.500 Y102.956 E1.07972
G1 X97.204 Y102.695 E1.08351
G1 X97.141 Y102.632 E1.08436
G1 X96.877 Y102.337 E1.08816
G1 X96.864 Y102.321 E1.08837
G1 X96.841 Y102.288 E1.08874
G1 X96.673 Y101.986 E1.09206
G1 X96.568 Y101.753 E1.09452
G1 X96.474 Y101.483 E1.09726
G1 X96.321 Y100.849 E1.10352
G1 X96.270 Y100.546 E1.10647
G1 X96.266 Y100.363 E1.10823
G1 X96.275 Y100.296 E1.10888
G1 X96.274 Y100.274 E1.10909
G1 X96.281 Y100.180 E1.11000
G1 X96.270 Y99.914 E1.11255
G1 X96.272 Y99.900 E1.11268
G1 X96.283 Y99.843 E1.11324
G1 X96.302 Y99.672 E1.11489
G1 X96.310 Y99.652 E1.11510
G1 X96.375 Y99.285 E1.11868
G1 X96.395 Y99.205 E1.11947
G1 X96.398 Y99.195 E1.11957
G1 X96.451 Y99.008 E1.12144
G1 X96.595 Y98.776 E1.12406
G1 X96.629 Y98.736 E1.12456
G1 X96.749 Y98.573 E1.12650
G1 X96.801 Y98.495 E1.12740
G1 X96.906 Y98.369 E1.12898
G1 X96.909 Y98.365 E1.12903
G1 X96.954 Y98.311 E1.12970
G1 X97.215 Y98.040 E1.13332
G1 X97.265 Y97.995 E1.13396
G1 X97.442 Y97.888 E1.13595
G1 X97.452 Y97.880 E1.13607
G1 X98.017 Y97.612 E1.14207
G1 X99.278 Y97.200 E1.15481
G1 X99.628 Y97.136 E1.15822
G1 X99.904 Y97.125 E1.16087
