; generated by Slic3r 0.7.2b on 2012-09-23 at 16:04:20

; layer_height = 0.1
; perimeters = 3
; solid_layers = 3
; fill_density = 0.4
; nozzle_diameter = 0.5
; filament_diameter = 3
; extrusion_multiplier = 1
; perimeter_speed = 30
; infill_speed = 60
; travel_speed = 130
; extrusion_width_ratio = 0
; scale = 1
; single wall width = 0.70mm

M104 S200 ; set temperature
G28 ; home all axes
M109 S200 ; wait for temperature to be reached
G90 ; use absolute coordinates
G21 ; set units to millimeters
G92 E0 ; reset extrusion distance
M82 ; use absolute distances for extrusion
G1 Z0.100 F7800.000
G1 X94.233 Y92.662
G1 F1800.000 E1.00000
G1 X95.043 Y92.232 F540.000 E1.00880
G1 X95.763 Y91.932 E1.01629
G1 X97.213 Y91.442 E1.03098
G1 X97.513 Y91.362 E1.03396
G1 X98.823 Y91.132 E1.04673
G1 X99.603 Y91.062 E1.05425
G1 X100.123 Y91.052 E1.05924
G1 X100.963 Y91.082 E1.06731
G1 X101.183 Y91.102 E1.06943
G1 X101.633 Y91.172 E1.07380
G1 X102.063 Y91.272 E1.07804
G1 X102.643 Y91.442 E1.08384
G1 X102.693 Y91.452 E1.08433
G1 X103.523 Y91.722 E1.09271
G1 X103.943 Y91.902 E1.09710
G1 X104.803 Y92.362 E1.10646
G1 X105.113 Y92.552 E1.10995
G1 X105.173 Y92.602 E1.11070
G1 X105.553 Y92.842 E1.11501
G1 X106.233 Y93.332 E1.12306
G1 X107.043 Y94.002 E1.13315
G1 X107.873 Y94.832 E1.14442
G1 X108.563 Y95.652 E1.15470
G1 X109.013 Y96.302 E1.16229
G1 X109.353 Y96.942 E1.16925
G1 X109.703 Y97.822 E1.17834
G1 X109.943 Y98.692 E1.18700
G1 X110.023 Y99.122 E1.19120
G1 X110.113 Y100.152 E1.20113
G1 X110.093 Y100.872 E1.20804
G1 X110.013 Y101.592 E1.21500
G1 X109.983 Y101.762 E1.21665
G1 X109.723 Y102.742 E1.22639
G1 X109.513 Y103.292 E1.23204
G1 X109.113 Y104.072 E1.24045
G1 X109.053 Y104.172 E1.24157
G1 X108.963 Y104.342 E1.24342
G1 X107.883 Y106.002 E1.26243
G1 X107.003 Y107.072 E1.27573
G1 X106.583 Y107.512 E1.28157
G1 X105.983 Y108.042 E1.28925
G1 X105.373 Y108.502 E1.29659
G1 X105.163 Y108.642 E1.29901
G1 X104.943 Y108.772 E1.30146
G1 X104.123 Y109.172 E1.31022
G1 X103.423 Y109.442 E1.31742
G1 X101.313 Y110.022 E1.33843
G1 X101.173 Y110.052 E1.33980
G1 X100.263 Y110.172 E1.34861
G1 X100.093 Y110.182 E1.35025
G1 X100.013 Y110.182 E1.35102
G1 X99.793 Y110.192 E1.35313
G1 X98.893 Y110.172 E1.36177
G1 X98.703 Y110.152 E1.36361
G1 X97.873 Y110.002 E1.37170
G1 X97.673 Y109.952 E1.37368
G1 X96.693 Y109.612 E1.38364
G1 X96.243 Y109.402 E1.38841
G1 X95.633 Y109.052 E1.39516
G1 X95.063 Y108.672 E1.40173
G1 X93.233 Y107.232 E1.42409
G1 X93.063 Y107.082 E1.42626
G1 X92.743 Y106.762 E1.43061
G1 X92.033 Y105.912 E1.44124
G1 X92.043 Y105.912 E1.44133
G1 X91.923 Y105.762 E1.44318
G1 X91.413 Y104.962 E1.45229
G1 X91.253 Y104.672 E1.45546
G1 X90.903 Y103.932 E1.46332
G1 X90.533 Y102.962 E1.47329
G1 X90.163 Y101.202 E1.49055
G1 X90.023 Y100.052 E1.50167
G1 X90.003 Y99.402 E1.50792
G1 X90.083 Y98.452 E1.51707
G1 X90.143 Y98.072 E1.52076
G1 X90.363 Y97.172 E1.52965
G1 X90.543 Y96.632 E1.53512
G1 X90.773 Y96.102 E1.54066
G1 X91.043 Y95.602 E1.54612
G1 X91.193 Y95.362 E1.54884
G1 X91.533 Y94.912 E1.55425
G1 X91.723 Y94.692 E1.55704
G1 X92.593 Y93.852 E1.56865
G1 X93.133 Y93.402 E1.57540
G1 X93.883 Y92.872 E1.58421
G1 X94.143 Y92.716 E1.58712
G1 F1800.000 E0.58712
G92 E0
G1 X97.943 Y99.046 F7800.000
G1 F1800.000 E1.00000
G1 X98.272 Y98.874 F540.000 E1.00356
G1 X99.174 Y98.565 E1.01272
G1 X99.344 Y98.519 E1.01441
G1 X99.392 Y98.512 E1.01488
G1 X99.409 Y98.509 E1.01504
G1 X99.589 Y98.482 E1.01679
G1 X99.623 Y98.475 E1.01712
G1 X99.841 Y98.446 E1.01924
G1 X100.223 Y98.436 E1.02290
G1 X100.287 Y98.439 E1.02351
G1 X100.336 Y98.450 E1.02400
G1 X100.489 Y98.496 E1.02553
G1 X100.537 Y98.515 E1.02603
G1 X100.758 Y98.580 E1.02824
G1 X100.854 Y98.614 E1.02922
G1 X100.970 Y98.676 E1.03048
G1 X101.109 Y98.766 E1.03207
G1 X101.558 Y99.046 E1.03714
G1 X102.023 Y99.423 E1.04289
G1 X102.072 Y99.457 E1.04346
G1 X102.078 Y99.461 E1.04354
G1 X102.119 Y99.500 E1.04408
G1 X102.191 Y99.580 E1.04511
G1 X102.394 Y99.776 E1.04782
G1 X102.432 Y99.820 E1.04838
G1 X102.453 Y99.841 E1.04867
G1 X102.700 Y100.144 E1.05241
G1 X102.701 Y100.148 E1.05246
G1 X102.730 Y100.235 E1.05334
G1 X102.742 Y100.317 E1.05413
G1 X102.742 Y100.327 E1.05422
G1 X102.739 Y100.367 E1.05461
G1 X102.737 Y100.376 E1.05470
G1 X102.686 Y100.459 E1.05563
G1 X102.674 Y100.492 E1.05597
G1 X102.596 Y100.611 E1.05734
G1 X102.041 Y101.489 E1.06731
G1 X101.764 Y101.862 E1.07177
G1 X101.485 Y102.185 E1.07587
G1 X101.426 Y102.241 E1.07664
G1 X101.393 Y102.267 E1.07705
G1 X101.289 Y102.357 E1.07837
G1 X101.117 Y102.436 E1.08019
G1 X100.836 Y102.527 E1.08303
G1 X100.192 Y102.682 E1.08938
G1 X100.059 Y102.723 E1.09071
G1 X99.986 Y102.737 E1.09143
G1 X99.802 Y102.800 E1.09329
G1 X99.764 Y102.811 E1.09368
G1 X99.728 Y102.817 E1.09403
G1 X99.684 Y102.821 E1.09445
G1 X99.674 Y102.821 E1.09455
G1 X99.585 Y102.824 E1.09540
G1 X99.506 Y102.775 E1.09629
G1 X99.490 Y102.763 E1.09649
G1 X99.466 Y102.740 E1.09680
G1 X98.722 Y102.112 E1.10615
G1 X98.655 Y102.082 E1.10686
G1 X98.248 Y101.808 E1.11156
G1 X98.105 Y101.689 E1.11335
G1 X98.006 Y101.568 E1.11485
G1 X97.991 Y101.545 E1.11512
G1 X97.893 Y101.426 E1.11659
G1 X97.846 Y101.357 E1.11739
G1 X97.761 Y101.196 E1.11914
G1 X97.607 Y100.807 E1.12316
G1 X97.465 Y100.095 E1.13012
G1 X97.464 Y100.044 E1.13062
G1 X97.430 Y99.601 E1.13489
G1 X97.407 Y99.491 E1.13596
G1 X97.604 Y99.301 E1.13859
G1 X97.778 Y99.161 E1.14073
G1 X97.812 Y99.123 E1.14122
G1 X97.852 Y99.099 E1.14167
G1 X97.393 Y98.570 F7800.000
G1 X97.625 Y98.433 F540.000 E1.14425
G1 X97.632 Y98.431 E1.14433
G1 X97.999 Y98.239 E1.14830
G1 X98.972 Y97.906 E1.15817
G1 X99.205 Y97.843 E1.16049
G1 X99.275 Y97.833 E1.16117
G1 X99.290 Y97.830 E1.16132
G1 X99.470 Y97.803 E1.16307
G1 X99.509 Y97.795 E1.16345
G1 X99.787 Y97.758 E1.16613
G1 X100.229 Y97.746 E1.17039
G1 X100.376 Y97.753 E1.17180
G1 X100.508 Y97.782 E1.17309
G1 X100.719 Y97.845 E1.17521
G1 X100.765 Y97.864 E1.17568
G1 X100.970 Y97.924 E1.17773
G1 X101.134 Y97.982 E1.17940
G1 X101.321 Y98.082 E1.18144
G1 X101.468 Y98.178 E1.18313
G1 X101.957 Y98.483 E1.18866
G1 X102.438 Y98.871 E1.19459
G1 X102.482 Y98.902 E1.19511
G1 X102.530 Y98.940 E1.19569
G1 X102.613 Y99.019 E1.19680
G1 X102.687 Y99.101 E1.19786
G1 X102.893 Y99.300 E1.20061
G1 X102.938 Y99.351 E1.20125
G1 X102.968 Y99.382 E1.20167
G1 X103.251 Y99.730 E1.20598
G1 X103.270 Y99.748 E1.20623
G1 X103.292 Y99.777 E1.20658
G1 X103.346 Y99.903 E1.20790
G1 X103.404 Y100.077 E1.20966
G1 X103.422 Y100.207 E1.21092
G1 X103.430 Y100.240 E1.21124
G1 X103.432 Y100.347 E1.21227
G1 X103.423 Y100.460 E1.21336
G1 X103.404 Y100.554 E1.21428
G1 X103.380 Y100.634 E1.21508
G1 X103.364 Y100.671 E1.21547
G1 X103.308 Y100.764 E1.21651
G1 X103.298 Y100.790 E1.21678
G1 X103.261 Y100.854 E1.21748
G1 X103.188 Y100.966 E1.21877
G1 X102.611 Y101.877 E1.22912
G1 X102.294 Y102.303 E1.23421
G1 X101.984 Y102.662 E1.23877
G1 X101.875 Y102.765 E1.24021
G1 X101.829 Y102.801 E1.24077
G1 X101.717 Y102.898 E1.24220
G1 X101.639 Y102.954 E1.24312
G1 X101.368 Y103.079 E1.24598
G1 X101.023 Y103.191 E1.24946
G1 X100.375 Y103.347 E1.25586
G1 X100.224 Y103.394 E1.25738
G1 X100.162 Y103.405 E1.25798
G1 X100.005 Y103.460 E1.25958
G1 X99.911 Y103.485 E1.26051
G1 X99.822 Y103.500 E1.26137
G1 X99.714 Y103.511 E1.26242
G1 X99.678 Y103.511 E1.26277
G1 X99.556 Y103.514 E1.26394
G1 X99.457 Y103.505 E1.26489
G1 X99.360 Y103.480 E1.26585
G1 X99.346 Y103.473 E1.26601
G1 X99.326 Y103.466 E1.26621
G1 X99.260 Y103.433 E1.26692
G1 X99.115 Y103.344 E1.26855
G1 X99.042 Y103.288 E1.26943
G1 X99.007 Y103.255 E1.26990
G1 X98.358 Y102.704 E1.27807
G1 X98.317 Y102.685 E1.27850
G1 X97.835 Y102.360 E1.28408
G1 X97.614 Y102.178 E1.28683
G1 X97.450 Y101.977 E1.28931
G1 X97.436 Y101.955 E1.28957
G1 X97.341 Y101.840 E1.29100
G1 X97.255 Y101.713 E1.29248
G1 X97.134 Y101.484 E1.29496
G1 X96.941 Y100.995 E1.30000
G1 X96.777 Y100.157 E1.30821
G1 X96.775 Y100.075 E1.30899
G1 X96.747 Y99.698 E1.31262
G1 X96.706 Y99.508 E1.31448
G1 X96.709 Y99.469 E1.31486
G1 X96.746 Y99.184 E1.31762
G1 X96.771 Y99.116 E1.31831
G1 X96.840 Y99.048 E1.31924
G1 X96.899 Y99.023 E1.31986
G1 X97.148 Y98.783 E1.32318
G1 X97.302 Y98.659 E1.32507
G1 X97.317 Y98.643 E1.32529
G1 X96.826 Y98.157 F7800.000
G1 X96.838 Y98.144 F540.000 E1.32546
G1 X96.980 Y98.014 E1.32731
G1 X97.327 Y97.809 E1.33118
G1 X97.351 Y97.800 E1.33143
G1 X97.726 Y97.604 E1.33549
G1 X98.770 Y97.246 E1.34608
G1 X99.065 Y97.167 E1.34901
G1 X99.157 Y97.153 E1.34991
G1 X99.171 Y97.151 E1.35005
G1 X99.351 Y97.124 E1.35179
G1 X99.395 Y97.115 E1.35222
G1 X99.732 Y97.070 E1.35548
G1 X100.246 Y97.056 E1.36042
G1 X100.253 Y97.058 E1.36049
G1 X100.465 Y97.067 E1.36252
G1 X100.680 Y97.114 E1.36463
G1 X100.950 Y97.195 E1.36734
G1 X100.993 Y97.212 E1.36779
G1 X101.182 Y97.268 E1.36967
G1 X101.413 Y97.350 E1.37203
G1 X101.671 Y97.488 E1.37484
G1 X101.828 Y97.589 E1.37663
G1 X102.357 Y97.921 E1.38263
G1 X102.852 Y98.320 E1.38873
G1 X102.892 Y98.348 E1.38920
G1 X102.982 Y98.418 E1.39029
G1 X103.108 Y98.538 E1.39197
G1 X103.183 Y98.622 E1.39305
G1 X103.393 Y98.825 E1.39584
G1 X103.443 Y98.882 E1.39658
G1 X103.482 Y98.922 E1.39711
G1 X103.761 Y99.264 E1.40135
G1 X103.775 Y99.278 E1.40154
G1 X103.802 Y99.309 E1.40193
G1 X103.879 Y99.409 E1.40314
G1 X103.896 Y99.436 E1.40345
G1 X103.991 Y99.658 E1.40577
G1 X104.065 Y99.878 E1.40800
G1 X104.065 Y99.879 E1.40801
G1 X104.080 Y99.930 E1.40852
G1 X104.101 Y100.083 E1.41000
G1 X104.118 Y100.157 E1.41073
G1 X104.121 Y100.367 E1.41275
G1 X104.107 Y100.553 E1.41454
G1 X104.074 Y100.723 E1.41620
G1 X104.029 Y100.869 E1.41766
G1 X103.980 Y100.985 E1.41888
G1 X103.929 Y101.069 E1.41981
G1 X103.922 Y101.088 E1.42001
G1 X103.847 Y101.216 E1.42144
G1 X103.779 Y101.320 E1.42263
G1 X103.739 Y101.393 E1.42343
G1 X103.731 Y101.406 E1.42357
G1 X103.636 Y101.560 E1.42531
G1 X103.636 Y101.561 E1.42532
G1 X102.965 Y102.567 E1.43693
G1 X102.484 Y103.138 E1.44410
G1 X102.325 Y103.289 E1.44620
G1 X102.265 Y103.335 E1.44693
G1 X102.145 Y103.439 E1.44845
G1 X101.988 Y103.552 E1.45030
G1 X101.620 Y103.722 E1.45420
G1 X101.210 Y103.855 E1.45833
G1 X100.557 Y104.012 E1.46478
G1 X100.388 Y104.064 E1.46648
G1 X100.339 Y104.073 E1.46696
G1 X100.207 Y104.119 E1.46830
G1 X100.058 Y104.159 E1.46978
G1 X99.917 Y104.183 E1.47115
G1 X99.744 Y104.201 E1.47283
G1 X99.681 Y104.200 E1.47342
G1 X99.532 Y104.205 E1.47486
G1 X99.337 Y104.185 E1.47674
G1 X99.135 Y104.133 E1.47875
G1 X99.085 Y104.112 E1.47927
G1 X99.052 Y104.099 E1.47961
G1 X98.926 Y104.037 E1.48095
G1 X98.724 Y103.912 E1.48323
G1 X98.594 Y103.813 E1.48481
G1 X98.548 Y103.769 E1.48542
G1 X97.993 Y103.295 E1.49242
G1 X97.979 Y103.288 E1.49257
G1 X97.422 Y102.913 E1.49902
G1 X97.141 Y102.681 E1.50252
G1 X97.095 Y102.632 E1.50316
G1 X96.894 Y102.386 E1.50621
G1 X96.880 Y102.365 E1.50645
G1 X96.787 Y102.251 E1.50786
G1 X96.663 Y102.068 E1.50999
G1 X96.507 Y101.773 E1.51319
G1 X96.285 Y101.212 E1.51899
G1 X96.272 Y101.171 E1.51939
G1 X96.088 Y100.218 E1.52871
G1 X96.087 Y100.106 E1.52978
G1 X96.063 Y99.796 E1.53277
G1 X96.012 Y99.558 E1.53511
G1 X96.023 Y99.401 E1.53661
G1 X96.073 Y99.019 E1.54031
G1 X96.136 Y98.846 E1.54208
G1 X96.167 Y98.739 E1.54315
G1 X96.238 Y98.672 E1.54409
G1 X96.252 Y98.660 E1.54427
G1 X96.409 Y98.504 E1.54639
G1 X96.440 Y98.468 E1.54685
G1 X96.514 Y98.437 E1.54762
G1 X96.692 Y98.265 E1.55000
G1 X96.744 Y98.223 E1.55064
G1 X97.941 Y99.624 F7800.000
G1 X100.469 Y102.152 F1080.000 E1.60144
G1 X101.297 Y101.776 F7800.000
G1 X98.709 Y99.187 F1080.000 E1.65345
G1 X99.667 Y98.941 F7800.000
G1 X101.809 Y101.082 F1080.000 E1.69649
G1 F1800.000 E0.69649
G92 E0
G1 Z0.200 F7800.000
G1 X102.051 Y101.410
G1 F1800.000 E1.00000
G1 X101.815 Y101.762 F1800.000 E1.00406
G1 X101.799 Y101.779 E1.00429
G1 X101.595 Y102.044 E1.00750
G1 X101.494 Y102.157 E1.00895
G1 X101.405 Y102.245 E1.01015
G1 X101.330 Y102.307 E1.01109
G1 X101.279 Y102.342 E1.01169
G1 X101.213 Y102.377 E1.01240
G1 X101.114 Y102.422 E1.01345
G1 X101.024 Y102.454 E1.01436
G1 X99.696 Y102.842 E1.02764
G1 X99.674 Y102.846 E1.02785
G1 X99.600 Y102.850 E1.02857
G1 X99.589 Y102.848 E1.02868
G1 X99.519 Y102.805 E1.02946
G1 X99.497 Y102.787 E1.02974
G1 X99.388 Y102.683 E1.03119
G1 X98.869 Y102.225 E1.03783
G1 X98.272 Y101.820 E1.04475
G1 X98.133 Y101.705 E1.04648
G1 X97.923 Y101.454 E1.04962
G1 X97.829 Y101.279 E1.05154
G1 X97.663 Y100.865 E1.05582
G1 X97.567 Y100.372 E1.06064
G1 X97.551 Y100.247 E1.06185
G1 X97.547 Y99.909 E1.06509
G1 X97.527 Y99.752 E1.06661
G1 X97.534 Y99.732 E1.06681
G1 X97.544 Y99.578 E1.06829
G1 X97.555 Y99.489 E1.06916
G1 X97.568 Y99.477 E1.06932
G1 X97.605 Y99.423 E1.06995
G1 X97.716 Y99.310 E1.07147
G1 X97.718 Y99.308 E1.07150
G1 X97.737 Y99.289 E1.07176
G1 X97.817 Y99.225 E1.07274
G1 X97.875 Y99.160 E1.07358
G1 X97.993 Y99.087 E1.07491
G1 X98.033 Y99.048 E1.07545
G1 X98.325 Y98.892 E1.07863
G1 X98.434 Y98.852 E1.07973
G1 X98.466 Y98.837 E1.08008
G1 X99.177 Y98.602 E1.08727
G1 X99.381 Y98.551 E1.08928
G1 X99.508 Y98.512 E1.09056
G1 X99.799 Y98.469 E1.09338
G1 X100.200 Y98.450 E1.09724
G1 X100.256 Y98.458 E1.09778
G1 X100.332 Y98.477 E1.09853
G1 X100.793 Y98.621 E1.10317
G1 X100.833 Y98.638 E1.10359
G1 X101.012 Y98.738 E1.10555
G1 X101.553 Y99.082 E1.11171
G1 X101.606 Y99.120 E1.11233
G1 X102.025 Y99.482 E1.11765
G1 X102.088 Y99.526 E1.11838
G1 X102.276 Y99.715 E1.12095
G1 X102.392 Y99.848 E1.12264
G1 X102.618 Y100.137 E1.12616
G1 X102.648 Y100.231 E1.12711
G1 X102.651 Y100.249 E1.12728
G1 X102.652 Y100.264 E1.12743
G1 X102.651 Y100.274 E1.12753
G1 X102.647 Y100.326 E1.12803
G1 X102.628 Y100.394 E1.12870
G1 X102.612 Y100.433 E1.12911
G1 X102.513 Y100.610 E1.13105
G1 X102.511 Y100.614 E1.13110
G1 X102.105 Y101.320 E1.13892
G1 X102.664 Y101.727 F7800.000
G1 X102.661 Y101.734 F1800.000 E1.13899
G1 X102.379 Y102.161 E1.14391
G1 X102.336 Y102.216 E1.14457
G1 X102.319 Y102.233 E1.14480
G1 X102.126 Y102.485 E1.14785
G1 X101.994 Y102.632 E1.14975
G1 X101.867 Y102.757 E1.15146
G1 X101.746 Y102.857 E1.15297
G1 X101.636 Y102.933 E1.15425
G1 X101.515 Y102.997 E1.15556
G1 X101.371 Y103.061 E1.15708
G1 X101.233 Y103.111 E1.15849
G1 X99.838 Y103.518 E1.17243
G1 X99.750 Y103.532 E1.17329
G1 X99.578 Y103.542 E1.17495
G1 X99.483 Y103.531 E1.17586
G1 X99.364 Y103.502 E1.17704
G1 X99.311 Y103.482 E1.17759
G1 X99.281 Y103.467 E1.17791
G1 X99.122 Y103.370 E1.17969
G1 X99.043 Y103.307 E1.18066
G1 X98.930 Y103.199 E1.18217
G1 X98.798 Y103.090 E1.18381
G1 X98.797 Y103.089 E1.18382
G1 X98.442 Y102.769 E1.18841
G1 X97.859 Y102.372 E1.19518
G1 X97.647 Y102.197 E1.19782
G1 X97.628 Y102.175 E1.19810
G1 X97.360 Y101.855 E1.20211
G1 X97.339 Y101.824 E1.20246
G1 X97.207 Y101.577 E1.20515
G1 X97.001 Y101.064 E1.21046
G1 X96.886 Y100.481 E1.21616
G1 X96.862 Y100.295 E1.21797
G1 X96.858 Y99.955 E1.22122
G1 X96.845 Y99.852 E1.22223
G1 X96.843 Y99.840 E1.22234
G1 X96.830 Y99.746 E1.22326
G1 X96.846 Y99.614 E1.22453
G1 X96.852 Y99.594 E1.22473
G1 X96.858 Y99.514 E1.22550
G1 X96.880 Y99.326 E1.22732
G1 X96.880 Y99.317 E1.22741
G1 X96.888 Y99.246 E1.22809
G1 X96.912 Y99.153 E1.22901
G1 X96.939 Y99.115 E1.22947
G1 X97.045 Y99.020 E1.23083
G1 X97.070 Y98.983 E1.23125
G1 X97.203 Y98.849 E1.23307
G1 X97.208 Y98.843 E1.23314
G1 X97.279 Y98.773 E1.23410
G1 X97.341 Y98.723 E1.23487
G1 X97.386 Y98.673 E1.23551
G1 X97.447 Y98.614 E1.23633
G1 X97.566 Y98.541 E1.23766
G1 X97.622 Y98.486 E1.23842
G1 X98.043 Y98.262 E1.24300
G1 X98.170 Y98.215 E1.24429
G1 X98.213 Y98.195 E1.24475
G1 X98.985 Y97.939 E1.25256
G1 X99.196 Y97.887 E1.25465
G1 X99.356 Y97.837 E1.25626
G1 X99.732 Y97.783 E1.25990
G1 X100.237 Y97.758 E1.26475
G1 X100.380 Y97.780 E1.26614
G1 X100.387 Y97.780 E1.26621
G1 X100.518 Y97.814 E1.26751
G1 X101.041 Y97.978 E1.27277
G1 X101.135 Y98.017 E1.27375
G1 X101.368 Y98.147 E1.27631
G1 X101.943 Y98.513 E1.28285
G1 X102.036 Y98.581 E1.28396
G1 X102.449 Y98.937 E1.28920
G1 X102.521 Y98.988 E1.29004
G1 X102.783 Y99.247 E1.29358
G1 X102.930 Y99.416 E1.29573
G1 X103.138 Y99.684 E1.29898
G1 X103.169 Y99.715 E1.29940
G1 X103.190 Y99.748 E1.29977
G1 X103.215 Y99.779 E1.30016
G1 X103.254 Y99.864 E1.30106
G1 X103.322 Y100.072 E1.30316
G1 X103.337 Y100.174 E1.30415
